X:32
T:Deerfield Reel
R:reel
C:Paul S. Cranford
O:Cape Breton Island
S:http://www.cranfordpub.com
D:currently unrecorded
B:currently unpublished in book form
Z:psc
H:                                                        copyrights Cranford Publications, SOCAN
L:1/8
Q:333
M:c|
K:C
z|gcge d2 ed|ceed cAAe|gcce d2 ed|cAAG c2 c2|
gcge d2 ed|ceed cAAc|GAce d2 ed|cAAG c2 c||
||e|gc c/c/c aged|ceed cAAe|gc c/c/c aged|cAAE G2 Ge|
gc c/c/c aged|ceed cAAc|GAce d2 ed|cAAG c2 c|]
